assets/Yarn/Flat/yarn_flat.svg

<svg width="32" height="32" viewBox="0 0 32 32" fill="none" xmlns="http://www.w3.org/2000/svg">
<path d="M9.11118 4.33844C8.8701 3.89815 9.03404 3.32777 9.47762 3.09762C9.92121 2.86747 10.4612 3.05759 10.6637 3.5279L14.9646 13.4044C15.0514 13.6146 14.9742 13.8547 14.7814 13.9548C14.5885 14.0548 14.3571 13.9848 14.251 13.7847L9.11118 4.33844ZM4.41222 8.75778C3.98159 8.47092 3.87393 7.85471 4.15776 7.40849C4.45137 6.96227 5.01903 6.86665 5.4203 7.196L13.8372 14.2081C14.0134 14.3462 14.0525 14.6224 13.9253 14.8136C13.7981 15.0049 13.5534 15.058 13.3674 14.9305L4.41222 8.75778Z" fill="#F3C07B"/>
<path d="M25 15.5C25 20.1944 21.1944 24 16.5 24C11.8056 24 8 20.1944 8 15.5C8 10.8056 11.8056 7 16.5 7C21.1944 7 25 10.8056 25 15.5Z" fill="#00A6ED"/>
<path d="M16.6347 7.00104C17.2241 7.0102 17.7988 7.07933 18.3532 7.2026C17.2721 7.74211 15.9783 8.51618 14.6366 9.50607C14.9022 10.0704 15.1985 10.6324 15.5277 11.1857C17.0748 10.078 18.8677 9.07645 20.919 8.2375C21.2594 8.44511 21.5842 8.67599 21.8909 8.92793C19.6358 9.7927 17.7001 10.853 16.0624 12.0321C16.4304 12.5812 16.8333 13.1179 17.2731 13.6352C19.1788 12.1563 21.3297 11.0209 23.4738 10.6391C23.6799 10.9343 23.8678 11.2431 24.0358 11.5641C21.9991 11.8293 19.8703 12.8969 17.945 14.3794C18.4407 14.8962 18.9776 15.3886 19.5582 15.8487C21.1617 14.7161 22.9628 13.8644 24.7851 13.5922C24.859 13.9145 24.9146 14.2437 24.9507 14.5788C23.4107 14.8055 21.8472 15.5056 20.4079 16.4768C20.9409 16.8434 21.5067 17.1838 22.1069 17.4932C22.9914 17.0439 23.9434 16.717 24.9325 16.5764C24.8874 16.9329 24.8203 17.2825 24.7325 17.6238C24.2464 17.7176 23.768 17.862 23.3027 18.0479C23.4037 18.0898 23.5056 18.1309 23.6084 18.1711L23.9315 18.2937C24.1063 18.3579 24.2836 18.4196 24.4634 18.4789C24.4616 18.4837 24.4598 18.4885 24.458 18.4933L24.8861 18.6557C27.4087 19.6123 28.4433 22.6244 27.041 24.9292C26.2586 26.2151 24.8623 27 23.3571 27H15C14.4477 27 14 27.4477 14 28C14 28.5523 14.4477 29 15 29H19C19.2761 29 19.5 29.2239 19.5 29.5C19.5 29.7761 19.2761 30 19 30H15C13.8954 30 13 29.1046 13 28C13 26.8954 13.8954 26 15 26H23.3571C24.5132 26 25.5858 25.3971 26.1867 24.4094C27.2638 22.6391 26.4692 20.3255 24.5315 19.5907L23.5972 19.2364C23.4717 19.1904 23.3475 19.1433 23.2244 19.095L23.1551 19.0687C23.142 19.0638 23.1292 19.0583 23.1168 19.0524C22.7773 18.9166 22.447 18.7719 22.1256 18.6191C21.7691 18.4496 21.4236 18.27 21.0889 18.0812C20.5485 17.7763 20.0362 17.4473 19.5508 17.0979C19.2692 16.8951 18.9966 16.6854 18.7329 16.4695C18.171 16.0096 17.6491 15.5213 17.1653 15.0116C16.9341 14.7681 16.7116 14.5196 16.4975 14.267C16.0502 13.7391 15.6395 13.1928 15.2635 12.635C15.075 12.3552 14.8951 12.0726 14.7237 11.7879C14.3939 11.2399 14.0952 10.6843 13.8258 10.1269C13.6625 9.78912 13.5101 9.45073 13.3679 9.11302C13.1845 8.67751 13.0182 8.24313 12.8682 7.81274C12.2458 8.10733 11.6649 8.47528 11.1366 8.90544C12.8701 13.5811 16.4264 18.7353 22.8885 21.1071C22.647 21.3819 22.3882 21.641 22.1136 21.8827C15.7479 19.3851 12.1618 14.297 10.3455 9.63719C9.80592 10.2035 9.34366 10.8441 8.97571 11.5422C9.15127 11.936 9.33901 12.3316 9.53945 12.7274C9.70998 13.0642 9.88971 13.4011 10.079 13.7373C10.3932 14.2954 10.7336 14.8513 11.1019 15.4005C11.2952 15.689 11.4962 15.9756 11.7051 16.2597C12.1259 16.832 12.5786 17.3943 13.065 17.9413C13.2889 18.1932 13.5201 18.4419 13.7586 18.6868C14.2364 19.1776 14.7438 19.6533 15.2819 20.1099C15.5348 20.3244 15.7945 20.5347 16.0611 20.7403C16.5075 21.0846 16.9734 21.4158 17.4595 21.7319C17.7365 21.9121 18.0201 22.0873 18.3103 22.2573C18.883 22.5927 19.4816 22.9075 20.1072 23.1989C19.6945 23.3925 19.2638 23.554 18.8182 23.68C18.4827 23.5062 18.1551 23.3258 17.8353 23.1393C17.7074 23.4242 17.6138 23.6909 17.5523 23.9355C17.2128 23.9774 16.8671 23.9993 16.5164 24C16.5958 23.5487 16.7579 23.0783 16.977 22.6124C16.4694 22.2848 15.9828 21.9415 15.5165 21.5847C15.4265 21.7371 15.3416 21.8886 15.2622 22.0386C14.9269 22.6719 14.6985 23.2605 14.5768 23.7815C14.249 23.7057 13.9284 23.6109 13.6163 23.4983C13.7683 22.8747 14.0339 22.2214 14.3784 21.5707C14.4867 21.3662 14.6037 21.1602 14.7289 20.9533C14.184 20.4959 13.6691 20.0199 13.1831 19.529C13.014 19.7926 12.8557 20.0552 12.7092 20.3155C12.2662 21.1025 11.9384 21.8548 11.7367 22.5409C11.4423 22.3414 11.161 22.1238 10.8946 21.8899C11.1242 21.2171 11.4459 20.5211 11.8377 19.8251C12.0323 19.4793 12.2457 19.131 12.4759 18.7826C11.9858 18.242 11.5279 17.6867 11.1008 17.1215C10.4021 18.1861 9.86913 19.2615 9.49151 20.3109C9.25103 19.9612 9.03604 19.5927 8.84922 19.2079C9.26511 18.2245 9.8056 17.2329 10.476 16.2572C10.0918 15.7011 9.73564 15.138 9.40597 14.5723C8.926 15.1977 8.4747 15.8549 8.0633 16.5426C8.02151 16.2009 8 15.853 8 15.5C8 15.2241 8.01315 14.9512 8.03885 14.682C8.30101 14.2994 8.57227 13.929 8.85083 13.5711C8.71059 13.3049 8.57598 13.0388 8.44687 12.773C8.84761 11.5892 9.50208 10.5223 10.3455 9.63719C10.5934 9.37702 10.8577 9.13256 11.1366 8.90544C11.9197 8.26778 12.8185 7.76681 13.7967 7.4389C13.9189 7.79237 14.0523 8.14815 14.1975 8.50459C15.0509 7.90497 15.8769 7.40384 16.6347 7.00104Z" fill="#0074BA"/>
</svg>

<svg xmlns="http://www.w3.org/2000/svg" width="32" height="32" fill="none"><path fill="#F3C07B" d="M9.111 4.338a.913.913 0 0 1 .367-1.24.855.855 0 0 1 1.186.43l4.3 9.876a.43.43 0 0 1-.183.55.39.39 0 0 1-.53-.17l-5.14-9.446Zm-4.699 4.42c-.43-.287-.538-.903-.254-1.35.293-.446.861-.541 1.262-.212l8.417 7.012a.463.463 0 0 1 .088.606.395.395 0 0 1-.558.117L4.412 8.758Z"/><path fill="#00A6ED" d="M25 15.5a8.5 8.5 0 1 1-17 0 8.5 8.5 0 0 1 17 0Z"/><path fill="#0074BA" d="M16.635 7.001c.59.01 1.164.078 1.718.202a25.842 25.842 0 0 0-3.716 2.303c.265.564.561 1.126.89 1.68 1.548-1.108 3.34-2.11 5.392-2.948.34.207.665.438.972.69-2.255.865-4.19 1.925-5.829 3.104.368.55.771 1.086 1.211 1.603 1.906-1.479 4.057-2.614 6.2-2.996.207.295.395.604.563.925-2.037.265-4.166 1.333-6.091 2.815.496.517 1.033 1.01 1.613 1.47 1.604-1.133 3.405-1.985 5.227-2.257.074.322.13.652.166.987-1.54.226-3.104.927-4.543 1.898.533.366 1.099.707 1.699 1.016a9.087 9.087 0 0 1 2.826-.917 8.47 8.47 0 0 1-.2 1.048 7.887 7.887 0 0 0-1.43.424c.1.042.203.083.305.123l.323.123c.175.064.353.126.532.185l-.005.014.428.163A4.312 4.312 0 0 1 23.357 27H15a1 1 0 1 0 0 2h4a.5.5 0 0 1 0 1h-4a2 2 0 1 1 0-4h8.357a3.312 3.312 0 0 0 1.175-6.41l-.935-.354c-.125-.046-.25-.093-.373-.141l-.069-.026a17.092 17.092 0 0 1-2.066-.988 16.562 16.562 0 0 1-2.356-1.611 17.055 17.055 0 0 1-2.236-2.203 18.642 18.642 0 0 1-1.773-2.48 20.64 20.64 0 0 1-1.356-2.674c-.184-.435-.35-.87-.5-1.3a8.507 8.507 0 0 0-1.731 1.092c1.733 4.676 5.29 9.83 11.752 12.202-.242.275-.5.534-.775.776-6.366-2.498-9.952-7.586-11.769-12.246a8.525 8.525 0 0 0-1.37 1.905 26.574 26.574 0 0 0 1.104 2.195 25.052 25.052 0 0 0 1.626 2.523 23.31 23.31 0 0 0 2.054 2.427 21.907 21.907 0 0 0 2.302 2.053 21.318 21.318 0 0 0 4.046 2.459 8.445 8.445 0 0 1-1.289.481 22.442 22.442 0 0 1-.983-.54 4.846 4.846 0 0 0-.283.796c-.34.041-.685.063-1.036.064.08-.451.242-.922.461-1.388a22.32 22.32 0 0 1-1.46-1.027c-.09.152-.175.304-.255.454-.335.633-.564 1.221-.685 1.742a8.419 8.419 0 0 1-.96-.283c.151-.623.417-1.277.761-1.927.109-.205.226-.41.35-.618a22.827 22.827 0 0 1-1.545-1.424c-.169.264-.327.526-.474.787-.443.787-.77 1.539-.972 2.225a8.525 8.525 0 0 1-.842-.651c.23-.673.55-1.369.943-2.065.194-.346.408-.694.638-1.042-.49-.541-.948-1.096-1.375-1.662a15.24 15.24 0 0 0-1.61 3.19 8.493 8.493 0 0 1-.642-1.103c.416-.983.957-1.975 1.627-2.95-.384-.557-.74-1.12-1.07-1.686a20.67 20.67 0 0 0-1.343 1.97 8.585 8.585 0 0 1-.024-1.86c.262-.383.533-.753.812-1.11-.14-.267-.275-.533-.404-.799a8.498 8.498 0 0 1 2.69-3.868 8.484 8.484 0 0 1 2.66-1.466c.122.353.255.71.4 1.066.854-.6 1.68-1.101 2.438-1.504Z"/></svg>
